X: 1
T: Mazurka
O: A.17
R: shottish
Z: 2017 John Chambers <jc:trillian.mit.edu>
S: handwritten MS of unknown origin, labelled "A.17".
M: 3/4
L: 1/8
K: Dm
|:\
AB AG FG | A2 AB A2 | A^c fe dc |\
[1,3 de fg a2 :|[2,4 d2 d4 :|
K: D
|:\
{f}a2 fd fa | a2 gf g2 | "pizz. . .".e2 .A2 .e2 |\
[1,3 de fg a2 :|[2,4 {c}d2 d4 :|
